packages/kaspersky-hexa-ui-icons/src/iconsSVGs/16/Search.svg

<svg width="16" height="16" viewBox="0 0 16 16" fill="none" xmlns="http://www.w3.org/2000/svg">
<path fill-rule="evenodd" clip-rule="evenodd" d="M9.70352 10.6603C8.79622 11.3662 7.65763 11.7865 6.42024 11.7865C3.45044 11.7865 1.0498 9.36518 1.0498 6.38679C1.0498 3.4084 3.45044 0.987061 6.42024 0.987061C9.39003 0.987061 11.7907 3.4084 11.7907 6.38679C11.7907 7.65503 11.3554 8.82226 10.6262 9.74456L14.7608 13.9048C15.0139 14.1594 15.0126 14.571 14.758 14.824C14.5034 15.0771 14.0918 15.0758 13.8387 14.8212L9.70352 10.6603ZM2.3498 6.38679C2.3498 4.11877 4.17598 2.28706 6.42024 2.28706C8.66449 2.28706 10.4907 4.11877 10.4907 6.38679C10.4907 7.50384 10.0477 8.51505 9.32993 9.25371C9.31005 9.26931 9.29086 9.28624 9.27249 9.3045C9.25445 9.32243 9.23767 9.34117 9.22217 9.36058C8.4918 10.0587 7.50484 10.4865 6.42024 10.4865C4.17598 10.4865 2.3498 8.65481 2.3498 6.38679Z" fill="black"/>
</svg>

<svg xmlns="http://www.w3.org/2000/svg" width="16" height="16" fill="none" viewBox="0 0 16 16"><path fill="#000" fill-rule="evenodd" d="M9.7035 10.6603c-.9073.7059-2.0459 1.1262-3.2833 1.1262-2.9698 0-5.3704-2.4213-5.3704-5.3997S3.4504.987 6.4202.987s5.3705 2.4213 5.3705 5.3997c0 1.2682-.4353 2.4355-1.1645 3.3578l4.1346 4.1602a.65.65 0 0 1-.9221.9164zM2.3498 6.3868c0-2.268 1.8262-4.0997 4.0704-4.0997s4.0705 1.8317 4.0705 4.0997c0 1.117-.443 2.1283-1.1608 2.867a.66.66 0 0 0-.1077.1068c-.7304.6981-1.7174 1.1259-2.802 1.1259-2.2442 0-4.0704-1.8317-4.0704-4.0997"/></svg>
